icons/1_Primary/Allegro.svg

<svg width="1024" height="1024" fill="none" xmlns="http://www.w3.org/2000/svg"><g clip-path="url(#a)"><path d="M512 1024c282.77 0 512-229.23 512-512S794.77 0 512 0 0 229.23 0 512s229.23 512 512 512Z" fill="#F8C18C"/><path d="M813.08 475.81a56.997 56.997 0 0 0-70.048-16.215 56.997 56.997 0 0 0-19.952 16.215 61.935 61.935 0 0 0 0 69.59 57.004 57.004 0 0 0 70.048 16.216A56.99 56.99 0 0 0 813.08 545.4a61.923 61.923 0 0 0 0-69.59Zm-17.83 47.84c-4.09 12.22-13.79 21.75-27.23 22.05-13.44.3-23.14-9.83-27.18-22.05a40.316 40.316 0 0 1 0-26.1c4.09-12.22 13.79-21.75 27.18-22.05 13.39-.3 23.14 9.83 27.23 22.05a40.364 40.364 0 0 1 0 26.05v.05Zm-409.92 40.88a3.221 3.221 0 0 1-3.22 3.22h-18.7a3.212 3.212 0 0 1-2.277-.943 3.227 3.227 0 0 1-.943-2.277V410.79a3.22 3.22 0 0 1 3.22-3.22h18.7a3.22 3.22 0 0 1 3.22 3.22v153.74Zm-43.93 0a3.221 3.221 0 0 1-3.22 3.22h-18.7a3.216 3.216 0 0 1-2.975-1.987 3.221 3.221 0 0 1-.245-1.233V410.79a3.222 3.222 0 0 1 3.18-3.22h18.7a3.22 3.22 0 0 1 3.22 3.22v153.74h.04Zm366.73-104.38v13a3.39 3.39 0 0 1-4.35 3.7c-21.14-4.35-34.14 5-34.14 24.57v63.07a3.22 3.22 0 0 1-3.22 3.22h-18.7a3.212 3.212 0 0 1-2.277-.943 3.227 3.227 0 0 1-.943-2.277v-64.37a43.491 43.491 0 0 1 13.79-32.58 48.544 48.544 0 0 1 34.23-13.83c4.361.016 8.712.424 13 1.22 2.22.74 2.57 2 2.57 5.39l.04-.17Zm-80.07 50.41a58.32 58.32 0 0 0-10.7-34.79 56.997 56.997 0 0 0-70.048-16.215 56.997 56.997 0 0 0-19.952 16.215 61.193 61.193 0 0 0 0 69.59 55.365 55.365 0 0 0 45 22.05 57.406 57.406 0 0 0 32.05-9.66v13.74c0 18.66-16.31 22.05-26.75 22.7a122.796 122.796 0 0 1-21.49-1.19c-2.87-.43-4.87 0-4.87 3.09v16.53a2.83 2.83 0 0 0 3 2.7c24.23 2.09 40.54 1.65 52.8-5.35a39.928 39.928 0 0 0 17.88-22.75 76.06 76.06 0 0 0 3.09-22.7v-54l-.01.04Zm-55.71 35.06c-13.44 0-23.14-9.83-27.23-22.05a40.316 40.316 0 0 1 0-26.1c4.09-12.22 13.79-22.05 27.23-22.05 30.05 0 31.05 30.66 31.05 35.1 0 4.44-1 35.1-31.05 35.1Zm-273.23-46.33c0-14.83-3.31-26.1-10.44-33.88-7.13-7.78-21.49-11.66-34.79-11.66a75.422 75.422 0 0 0-38.06 10.13 2.395 2.395 0 0 0-1.17 2.09l1 16.35a2.912 2.912 0 0 0 4.78 1.7c16.31-10 35.88-11.92 45.84-6.87a17.393 17.393 0 0 1 8.7 15.7v2.39H247.8c-11.7 0-47.54 4.35-47.54 37.27v.35a31.92 31.92 0 0 0 11.61 26.44 45.928 45.928 0 0 0 29.05 8.31h55a3.22 3.22 0 0 0 3.22-3.22v-65.23l-.02.13ZM275 547.53h-32.51a20.086 20.086 0 0 1-11.53-4 12.778 12.778 0 0 1-4.053-4.672 12.78 12.78 0 0 1-1.387-6.028c0-5.87 4-17.61 23.75-17.61H275v32.31Zm179.19-93.77c-33.27 0-47.84 22.31-52.5 41.19a63.405 63.405 0 0 0-1.91 15.57 59.145 59.145 0 0 0 10.7 34.79 57.116 57.116 0 0 0 19.952 16.225 57.12 57.12 0 0 0 25.048 5.825c18 .65 30-2.39 39.14-7.61a5.09 5.09 0 0 0 2.17-5.52v-14.49c0-3-1.78-4.35-4.35-2.57a56.75 56.75 0 0 1-36.19 8.7 29.618 29.618 0 0 1-29.05-26.4h73.94a3 3 0 0 0 3-3c1.36-20.22-4.51-62.71-49.96-62.71h.01Zm-26.59 45.71a25.136 25.136 0 0 1 26.24-24h.37a22.374 22.374 0 0 1 17.287 6.621 22.361 22.361 0 0 1 6.373 17.379H427.6Z" fill="#fff"/></g><defs><clipPath id="a"><path fill="#fff" d="M0 0h1024v1024H0z"/></clipPath></defs></svg>

<svg width="1024" height="1024" viewBox="0 0 1024 1024" fill="none" xmlns="http://www.w3.org/2000/svg">
<g clip-path="url(#clip0_2_1464)">
<path d="M512 1024C794.77 1024 1024 794.77 1024 512C1024 229.23 794.77 0 512 0C229.23 0 0 229.23 0 512C0 794.77 229.23 1024 512 1024Z" fill="#F8C18C"/>
<path d="M813.08 475.81C807.751 468.956 800.927 463.41 793.128 459.595C785.329 455.779 776.762 453.796 768.08 453.796C759.398 453.796 750.831 455.779 743.032 459.595C735.233 463.41 728.409 468.956 723.08 475.81C716.109 486.075 712.381 498.197 712.381 510.605C712.381 523.014 716.109 535.136 723.08 545.4C728.409 552.255 735.233 557.801 743.032 561.616C750.831 565.431 759.398 567.415 768.08 567.415C776.762 567.415 785.329 565.431 793.128 561.616C800.927 557.801 807.751 552.255 813.08 545.4C820.052 535.136 823.779 523.014 823.779 510.605C823.779 498.197 820.052 486.075 813.08 475.81ZM795.25 523.65C791.16 535.87 781.46 545.4 768.02 545.7C754.58 546 744.88 535.87 740.84 523.65C737.946 515.191 737.946 506.01 740.84 497.55C744.93 485.33 754.63 475.8 768.02 475.5C781.41 475.2 791.16 485.33 795.25 497.55C798.129 505.995 798.129 515.156 795.25 523.6V523.65ZM385.33 564.53C385.33 564.953 385.247 565.372 385.085 565.763C384.923 566.153 384.686 566.508 384.387 566.807C384.088 567.106 383.733 567.343 383.342 567.505C382.952 567.667 382.533 567.75 382.11 567.75H363.41C362.987 567.75 362.568 567.667 362.178 567.505C361.787 567.343 361.432 567.106 361.133 566.807C360.834 566.508 360.597 566.153 360.435 565.763C360.273 565.372 360.19 564.953 360.19 564.53V410.79C360.19 409.936 360.529 409.117 361.133 408.513C361.737 407.91 362.556 407.57 363.41 407.57H382.11C382.964 407.57 383.783 407.91 384.387 408.513C384.991 409.117 385.33 409.936 385.33 410.79V564.53ZM341.4 564.53C341.4 564.953 341.317 565.372 341.155 565.763C340.993 566.153 340.756 566.508 340.457 566.807C340.158 567.106 339.803 567.343 339.412 567.505C339.022 567.667 338.603 567.75 338.18 567.75H319.48C319.057 567.75 318.639 567.667 318.248 567.505C317.857 567.343 317.502 567.106 317.203 566.807C316.904 566.508 316.667 566.153 316.505 565.763C316.343 565.372 316.26 564.953 316.26 564.53V410.79C316.26 409.943 316.594 409.13 317.189 408.527C317.784 407.925 318.593 407.581 319.44 407.57H338.14C338.994 407.57 339.813 407.91 340.417 408.513C341.021 409.117 341.36 409.936 341.36 410.79V564.53H341.4ZM708.13 460.15V473.15C708.207 473.714 708.141 474.288 707.938 474.819C707.734 475.35 707.401 475.822 706.968 476.191C706.534 476.559 706.015 476.813 705.458 476.928C704.901 477.043 704.324 477.017 703.78 476.85C682.64 472.5 669.64 481.85 669.64 501.42V564.49C669.64 565.344 669.301 566.163 668.697 566.767C668.093 567.371 667.274 567.71 666.42 567.71H647.72C647.297 567.71 646.878 567.627 646.488 567.465C646.097 567.303 645.742 567.066 645.443 566.767C645.144 566.468 644.907 566.113 644.745 565.723C644.583 565.332 644.5 564.913 644.5 564.49V500.12C644.387 494.027 645.557 487.977 647.932 482.365C650.308 476.752 653.837 471.701 658.29 467.54C667.433 458.602 679.734 453.632 692.52 453.71C696.881 453.726 701.232 454.134 705.52 454.93C707.74 455.67 708.09 456.93 708.09 460.32L708.13 460.15ZM628.06 510.56C628.296 498.119 624.547 485.928 617.36 475.77C612.031 468.916 605.207 463.37 597.408 459.555C589.609 455.739 581.042 453.756 572.36 453.756C563.678 453.756 555.111 455.739 547.312 459.555C539.513 463.37 532.689 468.916 527.36 475.77C520.291 485.997 516.504 498.133 516.504 510.565C516.504 522.997 520.291 535.134 527.36 545.36C532.599 552.315 539.404 557.936 547.223 561.767C555.042 565.599 563.654 567.532 572.36 567.41C583.766 567.445 594.923 564.083 604.41 557.75V571.49C604.41 590.15 588.1 593.54 577.66 594.19C570.476 594.423 563.285 594.025 556.17 593C553.3 592.57 551.3 593 551.3 596.09V612.62C551.317 612.996 551.408 613.364 551.568 613.704C551.728 614.043 551.955 614.348 552.234 614.599C552.513 614.85 552.84 615.044 553.195 615.167C553.549 615.291 553.925 615.343 554.3 615.32C578.53 617.41 594.84 616.97 607.1 609.97C615.695 604.889 622.074 596.772 624.98 587.22C627.15 579.853 628.192 572.2 628.07 564.52V510.52L628.06 510.56ZM572.35 545.62C558.91 545.62 549.21 535.79 545.12 523.57C542.226 515.111 542.226 505.93 545.12 497.47C549.21 485.25 558.91 475.42 572.35 475.42C602.4 475.42 603.4 506.08 603.4 510.52C603.4 514.96 602.4 545.62 572.35 545.62ZM299.12 499.29C299.12 484.46 295.81 473.19 288.68 465.41C281.55 457.63 267.19 453.75 253.89 453.75C240.53 453.696 227.396 457.192 215.83 463.88C215.468 464.095 215.17 464.401 214.964 464.768C214.759 465.135 214.654 465.55 214.66 465.97L215.66 482.32C215.748 482.829 215.969 483.306 216.302 483.701C216.634 484.096 217.066 484.395 217.553 484.569C218.039 484.742 218.563 484.782 219.071 484.686C219.578 484.589 220.051 484.36 220.44 484.02C236.75 474.02 256.32 472.1 266.28 477.15C269.02 478.73 271.278 481.026 272.811 483.792C274.344 486.558 275.094 489.69 274.98 492.85V495.24H247.8C236.1 495.24 200.26 499.59 200.26 532.51V532.86C199.981 537.87 200.887 542.874 202.904 547.468C204.921 552.062 207.993 556.116 211.87 559.3C220.339 565.267 230.577 568.196 240.92 567.61H295.92C296.774 567.61 297.593 567.271 298.197 566.667C298.801 566.063 299.14 565.244 299.14 564.39V499.16L299.12 499.29ZM275 547.53H242.49C238.325 547.425 234.296 546.027 230.96 543.53C229.247 542.328 227.855 540.724 226.907 538.858C225.958 536.993 225.482 534.923 225.52 532.83C225.52 526.96 229.52 515.22 249.27 515.22H275V547.53ZM454.19 453.76C420.92 453.76 406.35 476.07 401.69 494.95C400.411 500.041 399.77 505.271 399.78 510.52C399.601 522.953 403.345 535.127 410.48 545.31C415.811 552.165 422.635 557.714 430.432 561.535C438.23 565.355 446.797 567.348 455.48 567.36C473.48 568.01 485.48 564.97 494.62 559.75C495.513 559.172 496.203 558.329 496.592 557.339C496.981 556.349 497.051 555.262 496.79 554.23V539.74C496.79 536.74 495.01 535.39 492.44 537.17C481.698 544.056 468.948 547.121 456.25 545.87C449.02 545.774 442.075 543.036 436.724 538.173C431.373 533.31 427.985 526.658 427.2 519.47H501.14C501.936 519.47 502.699 519.154 503.261 518.592C503.824 518.029 504.14 517.266 504.14 516.47C505.5 496.25 499.63 453.76 454.18 453.76H454.19ZM427.6 499.47C427.747 496.171 428.541 492.933 429.94 489.942C431.338 486.95 433.311 484.263 435.748 482.034C438.185 479.806 441.037 478.079 444.141 476.952C447.245 475.826 450.541 475.323 453.84 475.47H454.21C457.397 475.276 460.589 475.766 463.571 476.908C466.552 478.05 469.255 479.817 471.497 482.091C473.738 484.365 475.467 487.092 476.566 490.09C477.666 493.088 478.11 496.286 477.87 499.47H427.6Z" fill="white"/>
</g>
<defs>
<clipPath id="clip0_2_1464">
<rect width="1024" height="1024" fill="white"/>
</clipPath>
</defs>
</svg>
